human-female-female-child.svg

<svg fill="currentColor" viewBox="0 0 24 24"><path d="M16 4c0-1.1.9-2 2-2s2 .9 2 2-.9 2-2 2-2-.9-2-2m4 12h2.5L20 8.4c-.3-.8-1-1.4-1.9-1.4H18c-.9 0-1.6.6-1.9 1.4l-.9 2.6c1.1.6 1.8 1.7 1.8 3.1V22h3m-7.5-10.5c.8 0 1.5-.7 1.5-1.5s-.7-1.5-1.5-1.5S11 9.2 11 10s.7 1.5 1.5 1.5M5 6c1.1 0 2-.9 2-2s-.9-2-2-2-2 .9-2 2 .9 2 2 2m9 16v-4h1v-4c0-.8-.7-1.5-1.5-1.5h-2c-.8 0-1.5.7-1.5 1.5v4h1v4zm-7 0v-6h2.5L7 8.4C6.7 7.6 6 7 5.1 7H5c-.9 0-1.6.6-1.9 1.4L1.5 16H4v6z"/></svg>

<svg  viewBox="0 0 24 24" fill="currentColor"><path  d="M16 4C16 2.9 16.9 2 18 2S20 2.9 20 4 19.1 6 18 6 16 5.1 16 4M20 16H22.5L20 8.4C19.7 7.6 19 7 18.1 7H18C17.1 7 16.4 7.6 16.1 8.4L15.2 11C16.3 11.6 17 12.7 17 14.1V22H20M12.5 11.5C13.3 11.5 14 10.8 14 10S13.3 8.5 12.5 8.5 11 9.2 11 10 11.7 11.5 12.5 11.5M5 6C6.1 6 7 5.1 7 4S6.1 2 5 2 3 2.9 3 4 3.9 6 5 6M14 22V18H15V14C15 13.2 14.3 12.5 13.5 12.5H11.5C10.7 12.5 10 13.2 10 14V18H11V22H14M7 22V16H9.5L7 8.4C6.7 7.6 6 7 5.1 7H5C4.1 7 3.4 7.6 3.1 8.4L1.5 16H4V22H7Z"/></svg>
